assets/img/icon_searchnormal1_.svg

<svg width="22" height="22" viewBox="0 0 22 22" fill="none" xmlns="http://www.w3.org/2000/svg">
<path d="M10.4884 20.7172C4.707 20.7172 0 16.2618 0 10.7894C0 5.31707 4.707 0.861694 10.4884 0.861694C16.2698 0.861694 20.9768 5.31707 20.9768 10.7894C20.9768 16.2618 16.2698 20.7172 10.4884 20.7172ZM10.4884 2.31453C5.54607 2.31453 1.53489 6.12097 1.53489 10.7894C1.53489 15.4579 5.54607 19.2643 10.4884 19.2643C15.4308 19.2643 19.442 15.4579 19.442 10.7894C19.442 6.12097 15.4308 2.31453 10.4884 2.31453Z" fill="#292D32"/>
<path d="M21.2331 21.6856C21.0387 21.6856 20.8443 21.6178 20.6908 21.4725L18.6443 19.5354C18.3475 19.2545 18.3475 18.7896 18.6443 18.5088C18.941 18.2279 19.4322 18.2279 19.7289 18.5088L21.7754 20.4459C22.0722 20.7268 22.0722 21.1917 21.7754 21.4725C21.6219 21.6178 21.4275 21.6856 21.2331 21.6856Z" fill="#292D32"/>
</svg>

<svg xmlns="http://www.w3.org/2000/svg" width="22" height="22" fill="none"><path fill="#292D32" d="M10.488 20.717C4.707 20.717 0 16.262 0 10.79 0 5.317 4.707.862 10.488.862c5.782 0 10.489 4.455 10.489 9.927 0 5.473-4.707 9.928-10.489 9.928Zm0-18.402c-4.942 0-8.953 3.806-8.953 8.474 0 4.669 4.011 8.475 8.953 8.475 4.943 0 8.954-3.806 8.954-8.475 0-4.668-4.011-8.474-8.954-8.474ZM21.233 21.686a.781.781 0 0 1-.542-.213l-2.047-1.938a.703.703 0 0 1 0-1.026.803.803 0 0 1 1.085 0l2.046 1.937a.703.703 0 0 1 0 1.026.781.781 0 0 1-.542.214Z"/></svg>
